X: 101
T: If All the Young Ladies
N:"Moderate" "collected by F. O'Neill"
B:O'Neill's 101
Z:Transcribed by henrik.norbeck@mailbox.swipnet.se
M:3/4
L:1/8
K:A
(cd) | e2 A2 A2 | A2 G2 A2 | c2 d2 e2 | f2 e2 d2 |\
e2 A2 A2 | A2 G2 A2 | c2 d2 e2 | e2 d2 d2 |
e2 a2 a2 | e2 g2 ge | d2 c2 B2 | A2 G2 AB |\
c4 Bc | d4 cd | e2 A2 A2 | A4 |]


